Newaita-dark/mimetypes/48/office-contact.svg

<svg height="48pt" viewBox="0 0 48 48" width="48pt" xmlns="http://www.w3.org/2000/svg" xmlns:xlink="http://www.w3.org/1999/xlink"><linearGradient id="a" gradientUnits="userSpaceOnUse" x1="24.807067" x2="24.807067" y1="42.0509015" y2="44.03546731253"><stop offset="0" stop-opacity=".27451"/><stop offset="1" stop-opacity="0"/></linearGradient><linearGradient id="b"><stop offset="0" stop-opacity=".313725"/><stop offset=".222222" stop-opacity=".27451"/><stop offset="1" stop-opacity="0"/></linearGradient><radialGradient id="c" cx="450.90894" cy="189.57936" gradientTransform="matrix(.00000026 -.117199 -.210958 -.00000015 74.226852 95.393)" gradientUnits="userSpaceOnUse" r="21.166656" xlink:href="#b"/><radialGradient id="d" cx="450.90894" cy="189.57936" gradientTransform="matrix(-.00000026 .117199 .210958 .00000015 -27.589578 -11.29122)" gradientUnits="userSpaceOnUse" r="21.166656" xlink:href="#b"/><radialGradient id="e" cx="450.90894" cy="189.57936" gradientTransform="matrix(-.00000026 -.117199 .210958 -.00000015 -27.589578 95.393)" gradientUnits="userSpaceOnUse" r="21.166656" xlink:href="#b"/><radialGradient id="f" cx="450.90894" cy="189.57936" gradientTransform="matrix(.00000026 .117199 -.210958 .00000015 74.22685 -11.291221)" gradientUnits="userSpaceOnUse" r="21.166656" xlink:href="#b"/><linearGradient id="g" gradientUnits="userSpaceOnUse" x1="23.318674" x2="23.318674" y1="42.05096669922" y2="4.34417271465"><stop offset="0" stop-color="#b0bec5"/><stop offset="1" stop-color="#cfd8dc"/></linearGradient><linearGradient id="h"><stop offset="0" stop-color="#78909c"/><stop offset="1" stop-color="#90a4ae"/></linearGradient><linearGradient id="i" gradientUnits="userSpaceOnUse" x1="18.201735" x2="18.201735" xlink:href="#h" y1="32.62430869922" y2="-5.08248528535"/><linearGradient id="j" gradientUnits="userSpaceOnUse" x1="370.41667" x2="370.41667" xlink:href="#h" y1="233.5" y2="-168.666668"/><linearGradient id="k" gradientUnits="userSpaceOnUse" x1="370.41667" x2="370.41667" xlink:href="#h" y1="233.49999" y2="-158.083334"/><linearGradient id="l" gradientUnits="userSpaceOnUse" x1="211.66665" x2="211.66665" xlink:href="#h" y1="233.500019" y2="-168.666651"/><linearGradient id="m" gradientUnits="userSpaceOnUse" x1="211.66665" x2="211.66665" xlink:href="#h" y1="233.500009" y2="-168.666661"/><linearGradient id="n" gradientUnits="userSpaceOnUse" x1="370.41665" x2="370.41665" xlink:href="#h" y1="233.500017" y2="-168.666653"/><linearGradient id="o" gradientUnits="userSpaceOnUse" x1="370.41665" x2="370.41665" xlink:href="#h" y1="233.500007" y2="-168.666663"/><path d="m11.90625 42.050781h22.824219v1.984375h-22.824219zm0 0" fill="url(#a)"/><path d="m34.730469 42.050781h3.96875v-1.984375h-3.96875zm0 0" fill="url(#c)"/><path d="m11.90625 42.050781h-3.96875v1.984375h3.96875zm0 0" fill="url(#d)"/><path d="m11.90625 42.050781h-3.96875v-1.984375h3.96875zm0 0" fill="url(#e)"/><path d="m34.730469 42.050781h3.96875v1.984375h-3.96875zm0 0" fill="url(#f)"/><path d="m9.921875 4.34375c-1.097656 0-1.984375.886719-1.984375 1.984375v33.738281c0 .070313.003906.136719.011719.203125.101562 1.003907.941406 1.78125 1.972656 1.78125h26.792969c1.097656 0 1.984375-.886719 1.984375-1.984375v-33.738281c0-1.097656-.886719-1.984375-1.984375-1.984375zm0 0" fill="url(#g)"/><path d="m7.9375 39.296875v.769531c0 1.097656.886719 1.984375 1.984375 1.984375h26.792969c1.097656 0 1.984375-.886719 1.984375-1.984375v-.769531c0 1.097656-.886719 1.984375-1.984375 1.984375h-26.792969c-1.097656 0-1.984375-.886719-1.984375-1.984375zm0 0" fill-opacity=".235294"/><path d="m18.203125 7.816406c-1.925781 0-3.472656 1.550782-3.472656 3.472656 0 1.925782 1.546875 3.472657 3.472656 3.472657 1.921875 0 3.472656-1.546875 3.472656-3.472657 0-1.921874-1.550781-3.472656-3.472656-3.472656zm-2.636719 8.257813c-2.816406.707031-4.808594 2.511719-4.808594 4.644531v.992188h14.886719v-.992188c0-2.132812-1.992187-3.9375-4.804687-4.644531-.78125.429687-1.679688.671875-2.636719.671875s-1.855469-.242188-2.636719-.671875zm0 0" fill="url(#i)"/><path d="m9.921875 4.34375c-1.097656 0-1.984375.886719-1.984375 1.984375v.992187c0-1.097656.886719-1.984374 1.984375-1.984374h26.792969c1.097656 0 1.984375.886718 1.984375 1.984374v-.992187c0-1.097656-.886719-1.984375-1.984375-1.984375zm0 0" fill="#fff" fill-opacity=".392157"/><g stroke="#212121" stroke-linecap="round" stroke-linejoin="round"><path d="m399.961811 175.101391c-44.247744 0-79.992363 35.744619-79.992363 79.992362v1360.027622c0 2.834375.157466 5.511284.472396 8.188194 4.094098 40.468577 37.949133 71.804168 79.519967 71.804168h1080.054353c44.247744 0 79.992363-35.744619 79.992363-79.992362v-1360.027622c0-44.247743-35.744619-79.992362-79.992363-79.992362zm0 0" fill="none" stroke-width="11.338583" transform="scale(.0248071)"/><path d="m194.148126-131.632961c-20.539705 0-37.038129 16.540087-37.038129 37.03813 0 20.539705 16.498424 37.038129 37.038129 37.038129 20.498043 0 37.03813-16.498424 37.03813-37.038129 0-20.498043-16.540087-37.03813-37.03813-37.03813zm-28.122314 88.074922c-30.038798 7.540947-51.286769 26.789109-51.286769 49.536937v10.582322h158.776504v-10.582322c0-22.747828-21.247971-41.99599-51.245106-49.536937-8.332538 4.582896-17.914956 7.165983-28.122315 7.165983-10.207358 0-19.789776-2.583087-28.122314-7.165983zm0 0" fill="none" stroke-width="3" transform="matrix(.093759 0 0 .093759 0 20.158175)"/><path d="m280.473216-126.3418h95.240905c2.916388 0 5.291161 2.374773 5.291161 5.291162v10.582322c0 2.916389-2.374773 5.291162-5.291161 5.291162h-95.240905c-2.958051 0-5.291161-2.374773-5.291161-5.291162v-10.582322c0-2.916389 2.33311-5.291162 5.291161-5.291162zm0 0" fill="url(#j)" stroke-width="3" transform="matrix(.093759 0 0 .093759 0 20.158175)"/><path d="m280.473216-84.012509h95.240905c2.916388 0 5.291161 2.374774 5.291161 5.291162v10.582322c0 2.916389-2.374773 5.291162-5.291161 5.291162h-95.240905c-2.958051 0-5.291161-2.374773-5.291161-5.291162v-10.582322c0-2.916388 2.33311-5.291162 5.291161-5.291162zm0 0" fill="url(#k)" stroke-width="3" transform="matrix(.093759 0 0 .093759 0 20.158175)"/><path d="m121.696712 53.59935h95.240905c2.958051 0 5.332824 2.333111 5.332824 5.291161v10.582323c0 2.916388-2.374773 5.291162-5.332824 5.291162h-95.240905c-2.916388 0-5.291162-2.374774-5.291162-5.291162v-10.582323c0-2.95805 2.374774-5.291161 5.291162-5.291161zm0 0" fill="url(#l)" stroke-width="3" transform="matrix(.093759 0 0 .093759 0 20.158175)"/><path d="m121.696712 95.928641h95.240905c2.958051 0 5.332824 2.374773 5.332824 5.291162v10.582322c0 2.916388-2.374773 5.291162-5.332824 5.291162h-95.240905c-2.916388 0-5.291162-2.374774-5.291162-5.291162v-10.582322c0-2.916389 2.374774-5.291162 5.291162-5.291162zm0 0" fill="url(#m)" stroke-width="3" transform="matrix(.093759 0 0 .093759 0 20.158175)"/><path d="m280.473216 53.59935h95.240905c2.916388 0 5.291161 2.333111 5.291161 5.291161v10.582323c0 2.916388-2.374773 5.291162-5.291161 5.291162h-95.240905c-2.958051 0-5.291161-2.374774-5.291161-5.291162v-10.582323c0-2.95805 2.33311-5.291161 5.291161-5.291161zm0 0" fill="url(#n)" stroke-width="3" transform="matrix(.093759 0 0 .093759 0 20.158175)"/><path d="m280.473216 95.928641h95.240905c2.916388 0 5.291161 2.374773 5.291161 5.291162v10.582322c0 2.916388-2.374773 5.291162-5.291161 5.291162h-95.240905c-2.958051 0-5.291161-2.374774-5.291161-5.291162v-10.582322c0-2.916389 2.33311-5.291162 5.291161-5.291162zm0 0" fill="url(#o)" stroke-width="3" transform="matrix(.093759 0 0 .093759 0 20.158175)"/></g></svg>

<?xml version="1.0" encoding="UTF-8"?>
<svg xmlns="http://www.w3.org/2000/svg" xmlns:xlink="http://www.w3.org/1999/xlink" width="48pt" height="48pt" viewBox="0 0 48 48" version="1.1">
<defs>
<linearGradient id="linear0" gradientUnits="userSpaceOnUse" x1="254" y1="233.5" x2="254" y2="254.66667" gradientTransform="matrix(0.093759,0,0,0.093759,0.992281,20.158175)">
<stop offset="0" style="stop-color:rgb(0%,0%,0%);stop-opacity:0.27451;"/>
<stop offset="1" style="stop-color:rgb(0%,0%,0%);stop-opacity:0;"/>
</linearGradient>
<radialGradient id="radial0" gradientUnits="userSpaceOnUse" cx="450.90894" cy="189.57936" fx="450.90894" fy="189.57936" r="21.166656" gradientTransform="matrix(0.000000261256,-0.117199,-0.210958,-0.000000152308,74.226852,95.393)">
<stop offset="0" style="stop-color:rgb(0%,0%,0%);stop-opacity:0.313725;"/>
<stop offset="0.222222" style="stop-color:rgb(0%,0%,0%);stop-opacity:0.27451;"/>
<stop offset="1" style="stop-color:rgb(0%,0%,0%);stop-opacity:0;"/>
</radialGradient>
<radialGradient id="radial1" gradientUnits="userSpaceOnUse" cx="450.90894" cy="189.57936" fx="450.90894" fy="189.57936" r="21.166656" gradientTransform="matrix(-0.000000261256,0.117199,0.210958,0.000000152308,-27.589578,-11.29122)">
<stop offset="0" style="stop-color:rgb(0%,0%,0%);stop-opacity:0.313725;"/>
<stop offset="0.222222" style="stop-color:rgb(0%,0%,0%);stop-opacity:0.27451;"/>
<stop offset="1" style="stop-color:rgb(0%,0%,0%);stop-opacity:0;"/>
</radialGradient>
<radialGradient id="radial2" gradientUnits="userSpaceOnUse" cx="450.90894" cy="189.57936" fx="450.90894" fy="189.57936" r="21.166656" gradientTransform="matrix(-0.000000261256,-0.117199,0.210958,-0.000000152308,-27.589578,95.393)">
<stop offset="0" style="stop-color:rgb(0%,0%,0%);stop-opacity:0.313725;"/>
<stop offset="0.222222" style="stop-color:rgb(0%,0%,0%);stop-opacity:0.27451;"/>
<stop offset="1" style="stop-color:rgb(0%,0%,0%);stop-opacity:0;"/>
</radialGradient>
<radialGradient id="radial3" gradientUnits="userSpaceOnUse" cx="450.90894" cy="189.57936" fx="450.90894" fy="189.57936" r="21.166656" gradientTransform="matrix(0.000000261256,0.117199,-0.210958,0.000000152308,74.22685,-11.291221)">
<stop offset="0" style="stop-color:rgb(0%,0%,0%);stop-opacity:0.313725;"/>
<stop offset="0.222222" style="stop-color:rgb(0%,0%,0%);stop-opacity:0.27451;"/>
<stop offset="1" style="stop-color:rgb(0%,0%,0%);stop-opacity:0;"/>
</radialGradient>
<linearGradient id="linear1" gradientUnits="userSpaceOnUse" x1="940" y1="1695.1182" x2="940" y2="175.11812" gradientTransform="matrix(0.0248071,0,0,0.0248071,0,0)">
<stop offset="0" style="stop-color:rgb(69.019608%,74.509804%,77.254902%);stop-opacity:1;"/>
<stop offset="1" style="stop-color:rgb(81.176471%,84.705882%,86.27451%);stop-opacity:1;"/>
</linearGradient>
<linearGradient id="linear2" gradientUnits="userSpaceOnUse" x1="940" y1="1695.1182" x2="940" y2="175.11812" gradientTransform="matrix(0.0248071,0,0,0.0248071,-5.116939,-9.426658)">
<stop offset="0" style="stop-color:rgb(47.058824%,56.470588%,61.176471%);stop-opacity:1;"/>
<stop offset="1" style="stop-color:rgb(56.470588%,64.313725%,68.235294%);stop-opacity:1;"/>
</linearGradient>
<linearGradient id="linear3" gradientUnits="userSpaceOnUse" x1="254.00002" y1="413.41666" x2="254.00002" y2="11.249992" gradientTransform="matrix(1,0,0,1,116.41665,-179.91666)">
<stop offset="0" style="stop-color:rgb(47.058824%,56.470588%,61.176471%);stop-opacity:1;"/>
<stop offset="1" style="stop-color:rgb(56.470588%,64.313725%,68.235294%);stop-opacity:1;"/>
</linearGradient>
<linearGradient id="linear4" gradientUnits="userSpaceOnUse" x1="254.00002" y1="413.41666" x2="254.00002" y2="21.833336" gradientTransform="matrix(1,0,0,1,116.41665,-179.91667)">
<stop offset="0" style="stop-color:rgb(47.058824%,56.470588%,61.176471%);stop-opacity:1;"/>
<stop offset="1" style="stop-color:rgb(56.470588%,64.313725%,68.235294%);stop-opacity:1;"/>
</linearGradient>
<linearGradient id="linear5" gradientUnits="userSpaceOnUse" x1="254" y1="233.5" x2="254" y2="-168.66667" gradientTransform="matrix(1,0,0,1,-42.33335,0.0000193823)">
<stop offset="0" style="stop-color:rgb(47.058824%,56.470588%,61.176471%);stop-opacity:1;"/>
<stop offset="1" style="stop-color:rgb(56.470588%,64.313725%,68.235294%);stop-opacity:1;"/>
</linearGradient>
<linearGradient id="linear6" gradientUnits="userSpaceOnUse" x1="254" y1="233.5" x2="254" y2="-168.66667" gradientTransform="matrix(1,0,0,1,-42.33335,0.00000938232)">
<stop offset="0" style="stop-color:rgb(47.058824%,56.470588%,61.176471%);stop-opacity:1;"/>
<stop offset="1" style="stop-color:rgb(56.470588%,64.313725%,68.235294%);stop-opacity:1;"/>
</linearGradient>
<linearGradient id="linear7" gradientUnits="userSpaceOnUse" x1="254" y1="233.5" x2="254" y2="-168.66667" gradientTransform="matrix(1,0,0,1,116.41665,0.0000168392)">
<stop offset="0" style="stop-color:rgb(47.058824%,56.470588%,61.176471%);stop-opacity:1;"/>
<stop offset="1" style="stop-color:rgb(56.470588%,64.313725%,68.235294%);stop-opacity:1;"/>
</linearGradient>
<linearGradient id="linear8" gradientUnits="userSpaceOnUse" x1="254" y1="233.5" x2="254" y2="-168.66667" gradientTransform="matrix(1,0,0,1,116.41665,0.00000683919)">
<stop offset="0" style="stop-color:rgb(47.058824%,56.470588%,61.176471%);stop-opacity:1;"/>
<stop offset="1" style="stop-color:rgb(56.470588%,64.313725%,68.235294%);stop-opacity:1;"/>
</linearGradient>
</defs>
<g id="surface1">
<path style=" stroke:none;fill-rule:nonzero;fill:url(#linear0);" d="M 11.90625 42.050781 L 34.730469 42.050781 L 34.730469 44.035156 L 11.90625 44.035156 Z M 11.90625 42.050781 "/>
<path style=" stroke:none;fill-rule:nonzero;fill:url(#radial0);" d="M 34.730469 42.050781 L 38.699219 42.050781 L 38.699219 40.066406 L 34.730469 40.066406 Z M 34.730469 42.050781 "/>
<path style=" stroke:none;fill-rule:nonzero;fill:url(#radial1);" d="M 11.90625 42.050781 L 7.9375 42.050781 L 7.9375 44.035156 L 11.90625 44.035156 Z M 11.90625 42.050781 "/>
<path style=" stroke:none;fill-rule:nonzero;fill:url(#radial2);" d="M 11.90625 42.050781 L 7.9375 42.050781 L 7.9375 40.066406 L 11.90625 40.066406 Z M 11.90625 42.050781 "/>
<path style=" stroke:none;fill-rule:nonzero;fill:url(#radial3);" d="M 34.730469 42.050781 L 38.699219 42.050781 L 38.699219 44.035156 L 34.730469 44.035156 Z M 34.730469 42.050781 "/>
<path style=" stroke:none;fill-rule:nonzero;fill:url(#linear1);" d="M 9.921875 4.34375 C 8.824219 4.34375 7.9375 5.230469 7.9375 6.328125 L 7.9375 40.066406 C 7.9375 40.136719 7.941406 40.203125 7.949219 40.269531 C 8.050781 41.273438 8.890625 42.050781 9.921875 42.050781 L 36.714844 42.050781 C 37.8125 42.050781 38.699219 41.164062 38.699219 40.066406 L 38.699219 6.328125 C 38.699219 5.230469 37.8125 4.34375 36.714844 4.34375 Z M 9.921875 4.34375 "/>
<path style=" stroke:none;fill-rule:nonzero;fill:rgb(0%,0%,0%);fill-opacity:0.235294;" d="M 7.9375 39.296875 L 7.9375 40.066406 C 7.9375 41.164062 8.824219 42.050781 9.921875 42.050781 L 36.714844 42.050781 C 37.8125 42.050781 38.699219 41.164062 38.699219 40.066406 L 38.699219 39.296875 C 38.699219 40.394531 37.8125 41.28125 36.714844 41.28125 L 9.921875 41.28125 C 8.824219 41.28125 7.9375 40.394531 7.9375 39.296875 Z M 7.9375 39.296875 "/>
<path style=" stroke:none;fill-rule:nonzero;fill:url(#linear2);" d="M 18.203125 7.816406 C 16.277344 7.816406 14.730469 9.367188 14.730469 11.289062 C 14.730469 13.214844 16.277344 14.761719 18.203125 14.761719 C 20.125 14.761719 21.675781 13.214844 21.675781 11.289062 C 21.675781 9.367188 20.125 7.816406 18.203125 7.816406 Z M 15.566406 16.074219 C 12.75 16.78125 10.757812 18.585938 10.757812 20.71875 L 10.757812 21.710938 L 25.644531 21.710938 L 25.644531 20.71875 C 25.644531 18.585938 23.652344 16.78125 20.839844 16.074219 C 20.058594 16.503906 19.160156 16.746094 18.203125 16.746094 C 17.246094 16.746094 16.347656 16.503906 15.566406 16.074219 Z M 15.566406 16.074219 "/>
<path style=" stroke:none;fill-rule:nonzero;fill:rgb(100%,100%,100%);fill-opacity:0.392157;" d="M 9.921875 4.34375 C 8.824219 4.34375 7.9375 5.230469 7.9375 6.328125 L 7.9375 7.320312 C 7.9375 6.222656 8.824219 5.335938 9.921875 5.335938 L 36.714844 5.335938 C 37.8125 5.335938 38.699219 6.222656 38.699219 7.320312 L 38.699219 6.328125 C 38.699219 5.230469 37.8125 4.34375 36.714844 4.34375 Z M 9.921875 4.34375 "/>
<path style="fill:none;stroke-width:11.338583;stroke-linecap:round;stroke-linejoin:round;stroke:rgb(12.941176%,12.941176%,12.941176%);stroke-opacity:1;stroke-miterlimit:4;" d="M 399.961811 175.101391 C 355.714067 175.101391 319.969448 210.84601 319.969448 255.093753 L 319.969448 1615.121375 C 319.969448 1617.95575 320.126914 1620.632659 320.441844 1623.309569 C 324.535942 1663.778146 358.390977 1695.113737 399.961811 1695.113737 L 1480.016164 1695.113737 C 1524.263908 1695.113737 1560.008527 1659.369118 1560.008527 1615.121375 L 1560.008527 255.093753 C 1560.008527 210.84601 1524.263908 175.101391 1480.016164 175.101391 Z M 399.961811 175.101391 " transform="matrix(0.0248071,0,0,0.0248071,0,0)"/>
<path style="fill:none;stroke-width:3;stroke-linecap:round;stroke-linejoin:round;stroke:rgb(12.941176%,12.941176%,12.941176%);stroke-opacity:1;stroke-miterlimit:4;" d="M 194.148126 -131.632961 C 173.608421 -131.632961 157.109997 -115.092874 157.109997 -94.594831 C 157.109997 -74.055126 173.608421 -57.556702 194.148126 -57.556702 C 214.646169 -57.556702 231.186256 -74.055126 231.186256 -94.594831 C 231.186256 -115.092874 214.646169 -131.632961 194.148126 -131.632961 Z M 166.025812 -43.558039 C 135.987014 -36.017092 114.739043 -16.76893 114.739043 5.978898 L 114.739043 16.56122 L 273.515547 16.56122 L 273.515547 5.978898 C 273.515547 -16.76893 252.267576 -36.017092 222.270441 -43.558039 C 213.937903 -38.975143 204.355485 -36.392056 194.148126 -36.392056 C 183.940768 -36.392056 174.35835 -38.975143 166.025812 -43.558039 Z M 166.025812 -43.558039 " transform="matrix(0.093759,0,0,0.093759,0,20.158175)"/>
<path style="fill-rule:nonzero;fill:url(#linear3);stroke-width:3;stroke-linecap:round;stroke-linejoin:round;stroke:rgb(12.941176%,12.941176%,12.941176%);stroke-opacity:1;stroke-miterlimit:4;" d="M 280.473216 -126.3418 L 375.714121 -126.3418 C 378.630509 -126.3418 381.005282 -123.967027 381.005282 -121.050638 L 381.005282 -110.468316 C 381.005282 -107.551927 378.630509 -105.177154 375.714121 -105.177154 L 280.473216 -105.177154 C 277.515165 -105.177154 275.182055 -107.551927 275.182055 -110.468316 L 275.182055 -121.050638 C 275.182055 -123.967027 277.515165 -126.3418 280.473216 -126.3418 Z M 280.473216 -126.3418 " transform="matrix(0.093759,0,0,0.093759,0,20.158175)"/>
<path style="fill-rule:nonzero;fill:url(#linear4);stroke-width:3;stroke-linecap:round;stroke-linejoin:round;stroke:rgb(12.941176%,12.941176%,12.941176%);stroke-opacity:1;stroke-miterlimit:4;" d="M 280.473216 -84.012509 L 375.714121 -84.012509 C 378.630509 -84.012509 381.005282 -81.637735 381.005282 -78.721347 L 381.005282 -68.139025 C 381.005282 -65.222636 378.630509 -62.847863 375.714121 -62.847863 L 280.473216 -62.847863 C 277.515165 -62.847863 275.182055 -65.222636 275.182055 -68.139025 L 275.182055 -78.721347 C 275.182055 -81.637735 277.515165 -84.012509 280.473216 -84.012509 Z M 280.473216 -84.012509 " transform="matrix(0.093759,0,0,0.093759,0,20.158175)"/>
<path style="fill-rule:nonzero;fill:url(#linear5);stroke-width:3;stroke-linecap:round;stroke-linejoin:round;stroke:rgb(12.941176%,12.941176%,12.941176%);stroke-opacity:1;stroke-miterlimit:4;" d="M 121.696712 53.59935 L 216.937617 53.59935 C 219.895668 53.59935 222.270441 55.932461 222.270441 58.890511 L 222.270441 69.472834 C 222.270441 72.389222 219.895668 74.763996 216.937617 74.763996 L 121.696712 74.763996 C 118.780324 74.763996 116.40555 72.389222 116.40555 69.472834 L 116.40555 58.890511 C 116.40555 55.932461 118.780324 53.59935 121.696712 53.59935 Z M 121.696712 53.59935 " transform="matrix(0.093759,0,0,0.093759,0,20.158175)"/>
<path style="fill-rule:nonzero;fill:url(#linear6);stroke-width:3;stroke-linecap:round;stroke-linejoin:round;stroke:rgb(12.941176%,12.941176%,12.941176%);stroke-opacity:1;stroke-miterlimit:4;" d="M 121.696712 95.928641 L 216.937617 95.928641 C 219.895668 95.928641 222.270441 98.303414 222.270441 101.219803 L 222.270441 111.802125 C 222.270441 114.718513 219.895668 117.093287 216.937617 117.093287 L 121.696712 117.093287 C 118.780324 117.093287 116.40555 114.718513 116.40555 111.802125 L 116.40555 101.219803 C 116.40555 98.303414 118.780324 95.928641 121.696712 95.928641 Z M 121.696712 95.928641 " transform="matrix(0.093759,0,0,0.093759,0,20.158175)"/>
<path style="fill-rule:nonzero;fill:url(#linear7);stroke-width:3;stroke-linecap:round;stroke-linejoin:round;stroke:rgb(12.941176%,12.941176%,12.941176%);stroke-opacity:1;stroke-miterlimit:4;" d="M 280.473216 53.59935 L 375.714121 53.59935 C 378.630509 53.59935 381.005282 55.932461 381.005282 58.890511 L 381.005282 69.472834 C 381.005282 72.389222 378.630509 74.763996 375.714121 74.763996 L 280.473216 74.763996 C 277.515165 74.763996 275.182055 72.389222 275.182055 69.472834 L 275.182055 58.890511 C 275.182055 55.932461 277.515165 53.59935 280.473216 53.59935 Z M 280.473216 53.59935 " transform="matrix(0.093759,0,0,0.093759,0,20.158175)"/>
<path style="fill-rule:nonzero;fill:url(#linear8);stroke-width:3;stroke-linecap:round;stroke-linejoin:round;stroke:rgb(12.941176%,12.941176%,12.941176%);stroke-opacity:1;stroke-miterlimit:4;" d="M 280.473216 95.928641 L 375.714121 95.928641 C 378.630509 95.928641 381.005282 98.303414 381.005282 101.219803 L 381.005282 111.802125 C 381.005282 114.718513 378.630509 117.093287 375.714121 117.093287 L 280.473216 117.093287 C 277.515165 117.093287 275.182055 114.718513 275.182055 111.802125 L 275.182055 101.219803 C 275.182055 98.303414 277.515165 95.928641 280.473216 95.928641 Z M 280.473216 95.928641 " transform="matrix(0.093759,0,0,0.093759,0,20.158175)"/>
</g>
</svg>
